static/assets/images/tokens/btcb.svg

<svg width="256" height="256" viewBox="0 0 256 256" fill="none" xmlns="http://www.w3.org/2000/svg">
<path d="M128 256C198.934 256 256 198.934 256 128C256 57.0662 198.934 0 128 0C57.0662 0 0 57.0662 0 128C0 198.934 57.0662 256 128 256Z" fill="#F5AC3A"/>
<path fill-rule="evenodd" clip-rule="evenodd" d="M196.515 106.033C200.001 84.5101 183.734 72.7235 161.389 64.5777L168.96 35.6664L151.251 31.0287L143.82 59.4033L129.667 55.6966L137.098 27.322L119.523 22.7193L111.898 51.8319L75.9773 42.4246L71.0145 61.3746C71.0145 61.3746 84.1565 64.5654 83.8938 64.7475C86.3203 65.1057 88.513 66.3918 90.0098 68.3349C91.5066 70.278 92.1907 72.7263 91.9179 75.1638L71.048 154.854C70.7807 155.669 70.3528 156.422 69.7895 157.069C69.2261 157.715 68.5389 158.243 67.7683 158.619C67.0069 159.009 66.1745 159.24 65.3212 159.3C64.4679 159.36 63.6112 159.247 62.8028 158.967C62.9849 159.23 49.9236 155.594 49.9236 155.594L41.0271 175.879L76.6128 185.199L68.8657 214.781L86.5747 219.419L94.2077 190.273L108.362 193.979L100.764 222.991L118.506 227.638L126.166 198.391C156.557 204.415 179.352 202.5 189.302 175.179C197.318 153.194 189.354 140.356 173.479 131.862C185.102 129.494 193.934 121.772 196.515 106.033ZM110.615 129.95L100.391 168.99C101.375 169.248 102.527 169.568 103.817 169.926C118.26 173.935 149.91 182.719 155.2 162.521C160.601 141.899 130.052 134.616 115.061 131.042L115.059 131.042C113.35 130.634 111.843 130.275 110.615 129.95ZM124.597 76.6973L115.304 112.182C116.161 112.407 117.172 112.691 118.306 113.01L118.309 113.01C130.402 116.408 156.57 123.76 161.388 105.364C166.328 86.5017 140.683 80.4936 128.212 77.5721C126.824 77.2467 125.598 76.9596 124.597 76.6973Z" fill="white"/>
</svg>

<svg xmlns="http://www.w3.org/2000/svg" fill="none" viewBox="0 0 256 256"><path fill="#F5AC3A" d="M128 256c70.934 0 128-57.066 128-128S198.934 0 128 0 0 57.066 0 128s57.066 128 128 128"/><path fill="#fff" fill-rule="evenodd" d="M196.515 106.033c3.486-21.523-12.781-33.31-35.126-41.455l7.571-28.912-17.709-4.637-7.431 28.374-14.153-3.706 7.431-28.375-17.575-4.603-7.625 29.113-35.92-9.407-4.963 18.95s13.141 3.19 12.879 3.373a9.465 9.465 0 0 1 8.024 10.416l-20.87 79.69a6.42 6.42 0 0 1-3.28 3.765 6.34 6.34 0 0 1-4.965.348c.182.263-12.88-3.373-12.88-3.373l-8.896 20.285 35.586 9.32-7.747 29.582 17.709 4.638 7.633-29.146 14.154 3.706-7.598 29.012 17.742 4.647 7.66-29.247c30.391 6.024 53.186 4.109 63.136-23.212 8.016-21.985.052-34.823-15.823-43.317 11.623-2.368 20.455-10.09 23.036-25.829m-85.9 23.917-10.224 39.04c.984.258 2.136.578 3.426.936 14.443 4.009 46.093 12.793 51.383-7.405 5.401-20.622-25.148-27.905-40.139-31.479h-.002c-1.709-.408-3.216-.767-4.444-1.092m13.982-53.253-9.293 35.485c.857.225 1.868.509 3.002.828h.003c12.093 3.398 38.261 10.75 43.079-7.646 4.94-18.862-20.705-24.87-33.176-27.792-1.388-.325-2.614-.612-3.615-.875" clip-rule="evenodd"/></svg>
